X: 36184
T: Scottisch
R: polka
M: 2/4
K: Gmajor
dd/d/|:gB d>G|B2 Bc/B/|AB/c/ d/c/B/A/|BG dd/d/|
gB d>G|B2 Bc/B/|AB/c/ d/c/B/A/|1 G2 dd/d/:|2 G2 d/d/d/d/||
ee f>e|ed e>d|dc d>c|cB d/d/d/d/|
ee f>e|ed e>d|dc d/c/B/A/|1 G2 d/d/d/d/:|2 G||

